X: 489
T: The Blessings of Peace
%R: jig
B: "Preston's Twenty Four Country Dances for the Year 1803", Tho. Preston, ed. p.205 #1
F: http://archive.org/details/Prestons24CountryDancesForTheYear1805
F: http://folkopedia.efdss.org/wiki/File:Preston_24_1803.PDF
N: The dance description is partly torn away, exposing part of a different page (493) at the lower left.
M: 6/8
L: 1/8
K: C
% - - - - - - - - - - - - - - - - - - - - - - - - -
|:\
g2a gec | afd gec | g2a gec | dBG G3 |\
EGc Gce | fga def | efg GAB | c3 c3 :|
|:\
dBG dBG | egf edc | agf edc | Bdc BAG |\
cBc GA_B | A=Bc def | efg GAB | c3 c3 :|
% - - - - - - - - - - - - - - - - - - - - - - - - -
%%begintext
%% 1st Lady set & turn the 2d Gentn with the right
%% hand then with the left hand, the 1st Gentn at
%% ***missing*** & turn the 2d Lady, lead
%% ***missing**
% % Part of the dance on a different page (493) is visible at lower left
%%endtext

%%sep 1 1 500
%%sep 1 1 500
